X:1
T:Title
%%score 1 { 2 | 3 }
L:1/8
Q:1/4=145
M:3/2
K:Bb
V:1 treble nm="Grand Piano, Soprano"
V:2 bass nm="Choir Pad, Bass"
V:3 bass 
V:1
 [DF]4 [DB]3 [DB] [DB]4 | [Fd]4 [Gc]2 [GB]2 [EG]4 | [EG]4 F3 [DF] [CF]4 | [C=E]4 [CF]8 | %4
w: By~Isaac~Baker~Woodbury~(1819\-1858) * * *||||
 [DF]4 [DB]3 [DB] [DB]4 | [Fd]4 [Gc]2 [GB]2 [EG]4 | [EG]4 F2 [FB]2 [Gc]4 | [FA]4 [FB]8- | %8
w: ||||
 [FB]4 z4 z4 |] %9
w: |
V:2
 B,4 B,3 B, B,4 | B,4 B,2 B,2 B,4 | B,4 B,3 B, A,4 | G,2 B,2 A,8 | B,4 B,3 B, B,4 | %5
 B,4 B,2 B,2 B,4 | B,4 B,2[K:treble] D2 E4 | C4 D8- | D4 z4 z4 |] %9
V:3
 B,,4 B,,3 B,, B,,4 | z4 E,2 E,2 E,4 | E,4 D,3 B,, C,4 | C,4 F,8 | B,,4 B,,3 B,, B,,4 | %5
 z4 E,2 E,2 E,4 | E,4 D,2 B,,2 E,4 | F,4 B,,8- | B,,4 z4 z4 |] %9

